X: 38056
T: Spinning Out Of The Turn
R: jig
M: 6/8
K: Adorian
ABd e2d|egg edB|AGE GBd|egg edB|
ABd e2d|egg AGE|GBd egg|edB A3:|
eaa g2g|ede A2A|eaa g2g|AGE GBd|
eaa g2g|eaa AGE|GBd egg|edB A3:|

